gos-pohoronq/img/list.svg

<svg width="56" height="73" viewBox="0 0 56 73" fill="none" xmlns="http://www.w3.org/2000/svg">
<path d="M50.3037 6.2918H38.2508V1.13707C38.2508 0.530633 37.7201 0 37.1137 0H19.148C18.5415 0 18.0109 0.530633 18.0109 1.13707V6.2918H5.2757C2.62253 6.2918 0.5 8.41433 0.5 11.0675V68.2243C0.5 70.8775 2.62253 73 5.2757 73H50.3795C53.0327 73 55.1552 70.8775 55.1552 68.2243V11.0675C55.0794 8.41433 52.9569 6.2918 50.3037 6.2918ZM19.148 20.9979H37.1137C37.7201 20.9979 38.2508 20.4673 38.2508 19.8609V14.9335H46.2103V63.9792H9.36916V15.0093H18.0109V19.8609C18.0109 20.5431 18.5415 20.9979 19.148 20.9979ZM35.9766 2.27414V13.7965V18.7238H20.285V13.7965V7.35306V2.27414H35.9766ZM52.8053 68.1485C52.8053 69.513 51.6682 70.6501 50.3037 70.6501H5.2757C3.91122 70.6501 2.77414 69.513 2.77414 68.1485V11.0675C2.77414 9.70301 3.91122 8.56594 5.2757 8.56594H18.0109V12.7352H8.23209C7.62565 12.7352 7.09502 13.2658 7.09502 13.8723V65.1921C7.09502 65.7986 7.62565 66.3292 8.23209 66.3292H47.3474C47.9538 66.3292 48.4844 65.7986 48.4844 65.1921V13.8723C48.4844 13.2658 47.9538 12.7352 47.3474 12.7352H38.2508V8.56594H50.3037C51.6682 8.56594 52.8053 9.70301 52.8053 11.0675V68.1485Z" fill="white"/>
<path d="M12.1738 33.8089C12.1738 34.4154 12.7045 34.946 13.3109 34.946H42.4957C43.1022 34.946 43.6328 34.4154 43.6328 33.8089C43.6328 33.2025 43.1022 32.6719 42.4957 32.6719H13.3109C12.7045 32.6719 12.1738 33.2025 12.1738 33.8089Z" fill="white"/>
<path d="M42.4957 40.6313H13.3109C12.7045 40.6313 12.1738 41.162 12.1738 41.7684C12.1738 42.3749 12.7045 42.9055 13.3109 42.9055H42.4957C43.1022 42.9055 43.6328 42.3749 43.6328 41.7684C43.6328 41.162 43.1022 40.6313 42.4957 40.6313Z" fill="white"/>
<path d="M42.4957 48.97H13.3109C12.7045 48.97 12.1738 49.5006 12.1738 50.107C12.1738 50.7135 12.7045 51.2441 13.3109 51.2441H42.4957C43.1022 51.2441 43.6328 50.7135 43.6328 50.107C43.6328 49.5006 43.1022 48.97 42.4957 48.97Z" fill="white"/>
</svg>

<svg width="56" height="73" fill="none" xmlns="http://www.w3.org/2000/svg"><path d="M50.304 6.292H38.25V1.137C38.25.531 37.72 0 37.114 0H19.148c-.607 0-1.137.53-1.137 1.137v5.155H5.276A4.756 4.756 0 00.5 11.068v57.156A4.756 4.756 0 005.276 73h45.103a4.756 4.756 0 004.776-4.776V11.067c-.076-2.653-2.198-4.775-4.851-4.775zM19.148 20.998h17.966c.606 0 1.137-.53 1.137-1.137v-4.928h7.96V63.98H9.368V15.01h8.642v4.852c0 .682.53 1.137 1.137 1.137zM35.977 2.274v16.45H20.285V2.274h15.692zm16.828 65.874a2.524 2.524 0 01-2.501 2.502H5.276a2.524 2.524 0 01-2.502-2.502v-57.08a2.524 2.524 0 012.502-2.502H18.01v4.17H8.232c-.606 0-1.137.53-1.137 1.136v51.32c0 .607.53 1.137 1.137 1.137h39.115c.607 0 1.137-.53 1.137-1.137v-51.32c0-.606-.53-1.137-1.137-1.137h-9.096v-4.17h12.053a2.524 2.524 0 012.501 2.503v57.08z" fill="#fff"/><path d="M12.174 33.809c0 .606.53 1.137 1.137 1.137h29.185c.606 0 1.137-.53 1.137-1.137 0-.606-.53-1.137-1.137-1.137H13.31c-.607 0-1.137.53-1.137 1.137zm30.322 6.822H13.31c-.607 0-1.137.531-1.137 1.137 0 .607.53 1.138 1.137 1.138h29.185c.606 0 1.137-.531 1.137-1.138 0-.606-.53-1.137-1.137-1.137zm0 8.339H13.31c-.607 0-1.137.53-1.137 1.137s.53 1.137 1.137 1.137h29.185c.606 0 1.137-.53 1.137-1.137 0-.606-.53-1.137-1.137-1.137z" fill="#fff"/></svg>
